X:203
T:Gasology
C:Tony Rice - Sam Bush solo
N:From "Acoustics" Kaleidoscope F10 
L:1/8
Q:1/4=220
M:4/4
K:G
z6 B,D | "Em"EF GA Bc d^d | "B7"ed eg (3fgf ef | "Em"ga ba gf eg | (3"B7"fgf ed BE GB | 
"Am"AB cA "Bm"Bc dB | "C"cd ef "Bm"ge fd | "Am"ed cB "B7"Ac BA | "tremelo slide to""Em"B/B/c/c/ ^c/c/d/d/ ^d/d/e/e/ =f/f/^f/f/ | 
ge4z fd | "B7"zB zA dB z2 | "Em"dB2A3 (3^AAA | "B7"B/B/B/B/ B/B/B/B/ B/B/B/B/ B/B/B/B/ | 
"Am"AB cA "Bm"Bc dB | "C"cd ec "Bm"de fd | "Am"eg (3fgf "B7"ed Bd | "Em"[e/e/][e/e/][e/e/][e/e/] [e/e/][e/e/][e/e/][e/e/] [e/e/][e/e/][e/e/][e/e/] [e/e/][e/e/][e/e/][e/e/] | 
"C"ba gb af ed | "Bm"Bd eg (3fgf e2 | "C"ba gb ag ed | "B7"Bd e2 "Em"e2 g2 | "C"b^a =ag _ba ge | 
(3"Bm"gfe (3fed (3"Am"e^d=d Bd | "C"dB ^AE "B7"GF DF | "Em"BB B2 (3a^ab bb | "C"b^a =ag _ba ge | 
"Bm"ag e2 "Am"Bd e2 | "C"b^a gb =ag ed | "B7"Bd eg "Em"e2 (3bag | (3"C"^a=ag (3bag (3bag (3_bag | 
(3"Bm"bag (3^a=a"Am"g e2 Bd | "C"eg ed "B7"B^A =AG | "Em"EE D2 GB z2 | "G"[gd][gd] de dD GB | 
"D"AF DF "C"EF "B"GB | "Em"AF/D/ E6 | 
 

